public/assets/techs/redux.svg

<svg width="20" height="20" viewBox="0 0 20 20" fill="none" xmlns="http://www.w3.org/2000/svg">
<g clip-path="url(#clip0_310_14)">
<path d="M13.8606 13.7531C14.5863 13.6913 15.1463 13.0531 15.1106 12.2913C15.0713 11.5294 14.4462 10.9181 13.6881 10.9181H13.6356C12.8513 10.9438 12.2363 11.605 12.2625 12.3925C12.2881 12.7931 12.4506 13.115 12.6756 13.3525C11.8 15.0519 10.4913 16.2994 8.5025 17.35C7.16813 18.0469 5.75813 18.3106 4.385 18.1219C3.23563 17.9625 2.3375 17.4488 1.7875 16.6244C0.963126 15.3744 0.888126 14.03 1.57563 12.6794C2.07625 11.7063 2.82563 10.9925 3.32313 10.6444C3.2 10.3194 3.05 9.7725 2.975 9.35875C-0.722499 12.0056 -0.344999 15.6288 0.778126 17.3381C1.615 18.5881 3.32313 19.3856 5.195 19.3856C5.69688 19.3856 6.22063 19.35 6.73188 19.2225C9.98125 18.5975 12.4388 16.6506 13.8475 13.78L13.8606 13.7531ZM18.3169 10.6319C16.3838 8.35938 13.535 7.10938 10.29 7.10938H9.86313C9.655 6.65 9.16625 6.36125 8.61625 6.36125H8.58063C7.79313 6.36125 7.18063 7.03813 7.20625 7.82313C7.23313 8.57125 7.86688 9.19625 8.62875 9.19625H8.69125C9.25375 9.17063 9.73938 8.82188 9.94125 8.32063H10.4031C12.3275 8.32063 14.1475 8.88375 15.8106 9.98125C17.08 10.8169 17.995 11.9181 18.5056 13.2294C18.955 14.3 18.9288 15.3519 18.4663 16.2275C17.7569 17.5975 16.5556 18.3231 14.9738 18.3231C13.9744 18.3231 13.0013 18.0106 12.4994 17.7863C12.2 18.0338 11.6988 18.4469 11.3369 18.6981C12.4375 19.1956 13.5475 19.4825 14.6219 19.4825C17.0569 19.4825 18.8669 18.1119 19.5538 16.7875C20.3019 15.29 20.2406 12.7669 18.3294 10.6056L18.3169 10.6319ZM5.40688 14.2025C5.43375 14.9506 6.0675 15.5756 6.8325 15.5756H6.88188C7.6825 15.55 8.29125 14.8888 8.255 14.1013C8.255 13.3519 7.6075 12.7269 6.84563 12.7269H6.79313C6.745 12.7269 6.67 12.7269 6.605 12.7538C5.57 11.0056 5.13313 9.13063 5.29563 7.10875C5.39375 5.58563 5.895 4.26375 6.79313 3.16375C7.5425 2.22938 8.95125 1.76375 9.915 1.74125C12.6106 1.68875 13.7369 5.05125 13.8219 6.38625L15.0719 6.76063C14.7819 2.66563 12.2369 0.517502 9.80188 0.517502C7.51688 0.517502 5.40688 2.1775 4.5575 4.6125C3.39813 7.86188 4.16 10.98 5.5825 13.48C5.45938 13.6394 5.38438 13.9294 5.40688 14.2025V14.2025Z" fill="#EEEEEE"/>
</g>
<defs>
<clipPath id="clip0_310_14">
<rect width="20" height="20" fill="white"/>
</clipPath>
</defs>
</svg>

<svg xmlns="http://www.w3.org/2000/svg" width="20" height="20" fill="none" xmlns:v="https://vecta.io/nano"><g clip-path="url(#A)"><path d="M13.861 13.753c.726-.062 1.286-.7 1.25-1.462s-.664-1.373-1.422-1.373h-.053c-.784.026-1.399.687-1.373 1.474.026.401.188.723.413.96-.876 1.699-2.184 2.947-4.173 3.998-1.334.697-2.744.961-4.117.772-1.149-.159-2.047-.673-2.597-1.497-.824-1.25-.899-2.594-.212-3.945a5.9 5.9 0 0 1 1.747-2.035 8.49 8.49 0 0 1-.348-1.286c-3.697 2.647-3.32 6.27-2.197 7.979.837 1.25 2.545 2.047 4.417 2.047.502 0 1.026-.036 1.537-.163 3.249-.625 5.707-2.572 7.116-5.443l.013-.027zm4.456-3.121c-1.933-2.273-4.782-3.523-8.027-3.523h-.427c-.208-.459-.697-.748-1.247-.748h-.036c-.787 0-1.4.677-1.374 1.462a1.44 1.44 0 0 0 1.423 1.373h.063c.563-.026 1.048-.374 1.25-.876h.462c1.924 0 3.744.563 5.408 1.661 1.269.836 2.184 1.937 2.695 3.248.449 1.071.423 2.123-.039 2.998-.709 1.37-1.911 2.096-3.492 2.096-.999 0-1.973-.312-2.474-.537l-1.162.912c1.101.497 2.211.784 3.285.784 2.435 0 4.245-1.371 4.932-2.695.748-1.498.687-4.021-1.224-6.182l-.012.026zm-12.91 3.571a1.44 1.44 0 0 0 1.426 1.373h.049c.801-.026 1.409-.687 1.373-1.474 0-.749-.648-1.374-1.409-1.374h-.053c-.048 0-.123 0-.188.027a9.34 9.34 0 0 1-1.309-5.645c.098-1.523.599-2.845 1.497-3.945.749-.934 2.158-1.4 3.122-1.422 2.696-.052 3.822 3.31 3.907 4.645l1.25.374c-.29-4.095-2.835-6.243-5.27-6.243-2.285 0-4.395 1.66-5.244 4.095-1.159 3.249-.397 6.368 1.025 8.868-.123.159-.198.449-.176.723z" fill="#764abc"/></g><defs><clipPath id="A"><path fill="#fff" d="M0 0h20v20H0z"/></clipPath></defs></svg>
